X:11231
T:Morse Avenue
R:reel
C:Liz Carroll
S:
H:
N:
D:Nomos tape of dubious origin
Z:Adrian Scahill
M:4/4
L:1/8
K:D
d3A BAFE|D3A BAFA|BFF2 B3d|A3B defe|\
d3A BAFE|D3A BAFA|dcdA BAdB|AFEF D4:||\
dffe f2df|f2df edBc|dffe fede|faa^g a=gfe|\
1 dffe f2df|f2df edBc|dcdA BAdB|AFEF D4:|2 bafb afeg|f2df edBc|dcdA BAdB|AFEF D4||
